X:1
T:Yes, We Have No Bananas
M:2/2
L:1/4
K:C
 e c d c| A c G2| G G A B| c2 z2| e c d c| A c G A| B B A ^F| B2 z2|\
 e c d c| A c G2| G G A B| c2 z2| B d B d| B d B c| d c B A| G G A B|\
 c z2 G| A G z F| E G3-| G z2 _A| A d z c| B A z B| c4-| c z2 G| A d z c|\
 _A d z c| G d z c| G d z c| ^F G z A| B2 B2| B4-| B/2 z/2 E F ^F|\
 G4| A A2 G| G c3-| c3 G| c4| d d c c| A4-| A G2 c| z2 G A| G z F E|\
 G4| z2 _A =A| d z c B| A z B c-| c3 z|
